devices/symbolic/ac-adapter-symbolic.svg

<svg xmlns="http://www.w3.org/2000/svg" viewBox="0 0 16 16">
  <path fill="#bebebe" d="M6 1v1H3v12c0 .554.446 1 1 1h8c.554 0 1-.446 1-1V2h-3V1H6zm2 4v3h3l-3 5v-3H5l3-5z"/>
</svg>

<svg xmlns="http://www.w3.org/2000/svg" viewBox="0 0 16 16">
  <defs id="defs3051">
    <style type="text/css" id="current-color-scheme">
      .ColorScheme-Text {
        color:#4d4d4d;
      }
      </style>
  </defs>
 <path 
     style="fill:#bebebe;fill-opacity:1;stroke:none" 
     class="ColorScheme-Text"
     d="M 6 1 L 6 2 L 3 2 L 3 3 L 3 14 C 3 14.554 3.446 15 4 15 L 12 15 C 12.554 15 13 14.554 13 14 L 13 3 L 13 2 L 10 2 L 10 1 L 6 1 z M 8 5 L 8 8 L 11 8 L 8 13 L 8 10 L 5 10 L 8 5 z "
     />
</svg>
